X: 1
T: Ducks on the Millpond
R: reel
S: Fiddle Hell Online 2020 handout for Tom Collins banjo workshop
Z: 2020 John Chambers <jc:trillian.mit.edu>
M: 4/4
L: 1/8
K: C
(3Gce | g2 (3Gce g2 (3Gce | g2 g2 ed (3Gce | g2g2 ed cg | AG Ag dc :|
|: cg | [ec]d cg ec dg | [ec]d cg de de | [ec]d fd eg cg | AG Ag dc :|

